img/hide.svg

<svg fill="none" height="17" viewBox="0 0 16 17" width="16" xmlns="http://www.w3.org/2000/svg"><path d="m7.89182 6.59807 2.01727 1.99579v-.10106c0-.50251-.20113-.98445-.55916-1.33978-.35802-.35533-.84361-.55495-1.34993-.55495zm-2.73637.50526.98637.97895c-.03182.13263-.05091.26526-.05091.41052 0 .50252.20113.98445.55916 1.33979.35802.35531.84361.55491 1.34993.55491.14 0 .28-.0189.41364-.0505l.98636.979c-.42636.2084-.89727.3347-1.4.3347-.84387 0-1.65318-.3327-2.24989-.9249-.5967-.5922-.93193-1.39547-.93193-2.233 0-.49894.12727-.96631.33727-1.38947zm-3.51909-3.49263 1.45091 1.44.28637.28421c-1.05.82105-1.87728 1.89474-2.37364 3.15789 1.10091 2.7726 3.81818 4.7368 7 4.7368.98636 0 1.92818-.1894 2.7873-.5305l.2736.2653 1.8582 1.8442.8082-.8021-11.28275-11.19791m5.55545 2.52632c.84387 0 1.65318.33271 2.2499.92493.5967.59222.9319 1.39544.9319 2.23296 0 .40421-.0827.79579-.2291 1.14948l1.8646 1.85052c.9545-.7895 1.7182-1.82526 2.1827-3-1.1009-2.77263-3.8182-4.73684-7-4.73684-.89091 0-1.74364.1579-2.54545.44211l1.3809 1.35789c.36273-.13895.75091-.22105 1.16455-.22105z" fill="#008699"/></svg>

<svg width="16" height="17" viewBox="0 0 16 17" fill="none" xmlns="http://www.w3.org/2000/svg">
<path d="M7.89182 6.59807L9.90909 8.59386V8.4928C9.90909 7.99029 9.70796 7.50835 9.34993 7.15302C8.99191 6.79769 8.50632 6.59807 8 6.59807H7.89182ZM5.15545 7.10333L6.14182 8.08228C6.11 8.21491 6.09091 8.34754 6.09091 8.4928C6.09091 8.99532 6.29204 9.47725 6.65007 9.83259C7.00809 10.1879 7.49368 10.3875 8 10.3875C8.14 10.3875 8.28 10.3686 8.41364 10.337L9.4 11.316C8.97364 11.5244 8.50273 11.6507 8 11.6507C7.15613 11.6507 6.34682 11.318 5.75011 10.7258C5.15341 10.1336 4.81818 9.33033 4.81818 8.4928C4.81818 7.99386 4.94545 7.52649 5.15545 7.10333ZM1.63636 3.6107L3.08727 5.0507L3.37364 5.33491C2.32364 6.15596 1.49636 7.22965 1 8.4928C2.10091 11.2654 4.81818 13.2296 8 13.2296C8.98636 13.2296 9.92818 13.0402 10.7873 12.6991L11.0609 12.9644L12.9191 14.8086L13.7273 14.0065L2.44455 2.80859M8 5.33491C8.84387 5.33491 9.65318 5.66762 10.2499 6.25984C10.8466 6.85206 11.1818 7.65528 11.1818 8.4928C11.1818 8.89701 11.0991 9.28859 10.9527 9.64228L12.8173 11.4928C13.7718 10.7033 14.5355 9.66754 15 8.4928C13.8991 5.72017 11.1818 3.75596 8 3.75596C7.10909 3.75596 6.25636 3.91386 5.45455 4.19807L6.83545 5.55596C7.19818 5.41701 7.58636 5.33491 8 5.33491Z" fill="#008699"/>
</svg>
